X: 10741
T: Dr. Gilbert's
R: reel
M: 4/4
K: Edorian
gf|:eBBA ~B3c|dBAF AFDF|eBBA B/c/d gb|afdf efgf|
eBBA ~B3c|dBAF AFDA|B~e3 Begb|afdf efgf:|
eB~B2 gBeB|defg afdf|gabg fgaf|egfd ed B/c/d|
afdf edBc|dBAF AFDA|Be~e2 Begb|afdf efgf:|

